X:1
T:Title
%%score { ( 1 4 ) | ( 2 3 ) }
L:1/8
Q:1/4=82
M:2/4
K:D
V:1 treble nm="Grand Piano"
V:4 treble 
V:2 bass 
V:3 bass 
V:1
 [FA]2 [EG]>F | F3 F | F2 [CE]>D | D2 z [FA] | [GB]d/c/ e/d/[Ac]/B/ | [GB] A2 [FA] | %6
w: J.~Mazzinghi * *||||||
 [FA]B/A/ [EG][DF] |[M:5/8] [DF]2 E2 z |[M:2/4] [FA]2 [EG]>F | F3 F | F2 [CE]>D |[M:3/8] D2 z | %12
w: ||||||
[M:1/8] [FA] |[M:2/4] [GB]d/c/ e/d/[Ac]/B/ | .A2 z2 | [FA]G [DF]E |[M:3/8] D2 z |[M:1/8] [Fd] | %18
w: ||||||
[M:2/4] z2 .A2 | F A2 [Fd] | z2 .A2 | F A2 [DFA] | [GB]d/c/ e/d/[Ac]/B/ | .[DA]2 z2 | %24
w: ||||||
 [FA]G [A,DF][CE] | [F,D]4 |] %26
w: ||
V:2
 D,2 A,,>[D,D] | [D,D]3 [D,D] | [D,D]2 A,,>D, | D,2 z D, | z[K:treble] B/A/ c/.BG/ | z F2 D, | %6
 z[K:treble] G/F/[K:bass] C,D, |[M:5/8] z2 C2 z |[M:2/4] D,2 A,,>[D,D] | [D,D]3 [D,D] | %10
 [D,D]2 A,,>D, |[M:3/8] D,2 z |[M:1/8] D, |[M:2/4] z[K:treble] B/A/ c/.BG/ | z d2[K:bass] D, | %15
 z E z C |[M:3/8] D,2 z |[M:1/8] [D,A,] |[M:2/4] [A,G]2 A,,2 | D[K:treble] F2 [D,A,] | %20
 [A,G]2[K:bass] A,,2 | D F2 D, | z[K:treble] B/A/ c/.BG/ | z A,2 D, | z E z G, | D,4 |] %26
V:3
 x4 | x4 | x4 | x4 | G,3[K:treble] G, | D,4 | D,2[K:treble][K:bass] z2 |[M:5/8] A,- A,2- A,/ z/ z | %8
[M:2/4] x4 | x4 | x4 |[M:3/8] x3 |[M:1/8] x |[M:2/4] G,3[K:treble] G, | D,4[K:bass] | A,2 A,,2 | %16
[M:3/8] x3 |[M:1/8] x |[M:2/4] x4 | D,4[K:treble] | x2[K:bass] x2 | D,4 | [G,D]3[K:treble] [G,D] | %23
 D,4 | A,2 A,,2 | x4 |] %26
V:4
 x4 | x4 | x4 | x4 | x4 | x4 | x4 |[M:5/8] x5 |[M:2/4] x4 | x4 | x4 |[M:3/8] x3 |[M:1/8] x | %13
[M:2/4] x4 | F3 [DF] | x4 |[M:3/8] x3 |[M:1/8] x |[M:2/4] ec [CE]-[CEG] | x4 | ec [CE]-[CEG] | x4 | %22
 x4 | F- [Fd]2 [A,DF] | x4 | x4 |] %26

